public/primaries/Wall.svg

<svg id="Layer_1" data-name="Layer 1" xmlns="http://www.w3.org/2000/svg" width="64" height="64" viewBox="0 0 64 64"><defs><style>.cls-1{fill-rule:evenodd}</style></defs><title>Icons 200</title><path class="cls-1" d="M9 17a2 2 0 0 1 2-2h18a2 2 0 0 1 2 2v6a2 2 0 0 1-2 2H11a2 2 0 0 1-2-2v-6zm0 12a2 2 0 0 1 2-2h6a2 2 0 0 1 2 2v6a2 2 0 0 1-2 2h-6a2 2 0 0 1-2-2v-6zm20 20H11a2 2 0 0 1-2-2v-6a2 2 0 0 1 2-2h18a2 2 0 0 1 2 2v6a2 2 0 0 1-2 2zm-8-14v-6a2 2 0 0 1 2-2h18a2 2 0 0 1 2 2v6a2 2 0 0 1-2 2H23a2 2 0 0 1-2-2zm34 12a2 2 0 0 1-2 2H35a2 2 0 0 1-2-2v-6a2 2 0 0 1 2-2h18a2 2 0 0 1 2 2v6zm0-12a2 2 0 0 1-2 2h-6a2 2 0 0 1-2-2v-6a2 2 0 0 1 2-2h6a2 2 0 0 1 2 2v6zm0-18v6a2 2 0 0 1-2 2H35a2 2 0 0 1-2-2v-6a2 2 0 0 1 2-2h18a2 2 0 0 1 2 2z"/></svg>

<svg id="Layer_1" data-name="Layer 1" xmlns="http://www.w3.org/2000/svg" width="64" height="64" viewBox="0 0 64 64">
  <defs>
    <style>
      .cls-1 {
        fill-rule: evenodd;
      }
    </style>
  </defs>
  <title>Icons 200</title>
  <path class="cls-1" d="M9,17a2,2,0,0,1,2-2H29a2,2,0,0,1,2,2v6a2,2,0,0,1-2,2H11a2,2,0,0,1-2-2V17ZM9,29a2,2,0,0,1,2-2h6a2,2,0,0,1,2,2v6a2,2,0,0,1-2,2H11a2,2,0,0,1-2-2V29ZM29,49H11a2,2,0,0,1-2-2V41a2,2,0,0,1,2-2H29a2,2,0,0,1,2,2v6A2,2,0,0,1,29,49ZM21,35V29a2,2,0,0,1,2-2H41a2,2,0,0,1,2,2v6a2,2,0,0,1-2,2H23A2,2,0,0,1,21,35ZM55,47a2,2,0,0,1-2,2H35a2,2,0,0,1-2-2V41a2,2,0,0,1,2-2H53a2,2,0,0,1,2,2v6Zm0-12a2,2,0,0,1-2,2H47a2,2,0,0,1-2-2V29a2,2,0,0,1,2-2h6a2,2,0,0,1,2,2v6Zm0-18v6a2,2,0,0,1-2,2H35a2,2,0,0,1-2-2V17a2,2,0,0,1,2-2H53A2,2,0,0,1,55,17Z"/>
</svg>
